weblate/static/icons/delete.svg

<svg width="14" height="18" version="1.1" viewBox="0 0 14 18" xmlns="http://www.w3.org/2000/svg"><g fill="none" fill-rule="evenodd"><g transform="translate(-981 -662)" fill="#F6664C" fill-rule="nonzero"><g transform="translate(951 656)"><g transform="translate(30 6)"><path d="m14 1h-3.5l-1-1h-5l-1 1h-3.5v2h14v-2zm-13 15c0 1.1046 0.89543 2 2 2h8c1.1046 0 2-0.89543 2-2v-12h-12v12z"/></g></g></g></g></svg>

<svg xmlns="http://www.w3.org/2000/svg" xmlns:xlink="http://www.w3.org/1999/xlink" width="14" height="18" version="1.1" viewBox="0 0 14 18"><title>DBCB1699-7372-4CC0-A4AC-CD54E0087766</title><desc>Created with sketchtool.</desc><g id="App-UI" fill="none" fill-rule="evenodd" stroke="none" stroke-width="1"><g id="Translation" fill="#F6664C" fill-rule="nonzero" transform="translate(-981.000000, -662.000000)"><g id="Admin" transform="translate(951.000000, 656.000000)"><g id="delete" transform="translate(30.000000, 6.000000)"><path id="Shape" d="M14,1 L10.5,1 L9.5,0 L4.5,0 L3.5,1 L0,1 L0,3 L14,3 L14,1 Z M1,16 C1,17.1045695 1.8954305,18 3,18 L11,18 C12.1045695,18 13,17.1045695 13,16 L13,4 L1,4 L1,16 Z"/></g></g></g></g></svg>
